usr/share/icons/biglinux-icons-material/scalable/places/gnome-fs-loading-icon.svg

<?xml version="1.0" encoding="UTF-8" standalone="no"?>
<svg
   width="24"
   height="24"
   version="1.1"
   id="svg11"
   sodipodi:docname="image-loading.svg"
   inkscape:version="1.3 (0e150ed6c4, 2023-07-21)"
   xmlns:inkscape="http://www.inkscape.org/namespaces/inkscape"
   xmlns:sodipodi="http://sodipodi.sourceforge.net/DTD/sodipodi-0.dtd"
   xmlns:xlink="http://www.w3.org/1999/xlink"
   xmlns="http://www.w3.org/2000/svg"
   xmlns:svg="http://www.w3.org/2000/svg">
  <sodipodi:namedview
     id="namedview11"
     pagecolor="#ffffff"
     bordercolor="#000000"
     borderopacity="0.25"
     inkscape:showpageshadow="2"
     inkscape:pageopacity="0.0"
     inkscape:pagecheckerboard="0"
     inkscape:deskcolor="#d1d1d1"
     inkscape:zoom="6.3359375"
     inkscape:cx="26.673243"
     inkscape:cy="31.171393"
     inkscape:window-width="2560"
     inkscape:window-height="998"
     inkscape:window-x="0"
     inkscape:window-y="0"
     inkscape:window-maximized="1"
     inkscape:current-layer="svg11" />
  <defs
     id="defs6">
    <linearGradient
       id="d"
       x1="32.707001"
       x2="53"
       y1="32"
       y2="32"
       gradientUnits="userSpaceOnUse"
       gradientTransform="translate(40)">
      <stop
         stop-color="#f3f3f3"
         offset="0"
         id="stop1" />
      <stop
         stop-color="#f9f9f9"
         offset="1"
         id="stop2" />
    </linearGradient>
    <linearGradient
       id="e"
       x1="11"
       x2="32"
       y1="32"
       y2="32"
       gradientUnits="userSpaceOnUse"
       gradientTransform="translate(40)">
      <stop
         stop-color="#dbdbdb"
         offset="0"
         id="stop3" />
      <stop
         stop-color="#f3f3f3"
         offset="1"
         id="stop4" />
    </linearGradient>
    <linearGradient
       id="f"
       x1="11"
       x2="11"
       y1="32"
       y2="11"
       gradientUnits="userSpaceOnUse"
       gradientTransform="translate(40)">
      <stop
         stop-color="#dcdcdc"
         offset="0"
         id="stop5" />
      <stop
         stop-color="#d3d3d3"
         offset="1"
         id="stop6" />
    </linearGradient>
    <radialGradient
       fx="0"
       fy="0"
       cx="0"
       cy="0"
       r="1"
       gradientUnits="userSpaceOnUse"
       gradientTransform="matrix(0,21.999999,-21.999999,0,11.999082,0.99994493)"
       spreadMethod="pad"
       id="radialGradient868-3">
      <stop
         style="stop-color:#ffffff;stop-opacity:1;"
         offset="0"
         id="stop864-6" />
      <stop
         style="stop-color:#f6f6f6;stop-opacity:1;"
         offset="1"
         id="stop866-7" />
    </radialGradient>
    <linearGradient
       inkscape:collect="always"
       xlink:href="#f"
       id="linearGradient30"
       gradientUnits="userSpaceOnUse"
       x1="11"
       y1="32"
       x2="11"
       y2="11"
       gradientTransform="translate(-60)" />
    <linearGradient
       inkscape:collect="always"
       xlink:href="#e"
       id="linearGradient31"
       gradientUnits="userSpaceOnUse"
       x1="11"
       y1="32"
       x2="32"
       y2="32"
       gradientTransform="translate(-60)" />
    <linearGradient
       inkscape:collect="always"
       xlink:href="#d"
       id="linearGradient32"
       gradientUnits="userSpaceOnUse"
       x1="32.707001"
       y1="32"
       x2="53"
       y2="32"
       gradientTransform="translate(-60)" />
    <linearGradient
       inkscape:collect="always"
       xlink:href="#f"
       id="linearGradient33"
       gradientUnits="userSpaceOnUse"
       x1="11"
       y1="32"
       x2="11"
       y2="11"
       gradientTransform="translate(-60)" />
    <linearGradient
       inkscape:collect="always"
       xlink:href="#e"
       id="linearGradient34"
       gradientUnits="userSpaceOnUse"
       x1="11"
       y1="32"
       x2="32"
       y2="32"
       gradientTransform="translate(-60)" />
    <linearGradient
       inkscape:collect="always"
       xlink:href="#d"
       id="linearGradient35"
       gradientUnits="userSpaceOnUse"
       x1="32.707001"
       y1="32"
       x2="53"
       y2="32"
       gradientTransform="translate(-60)" />
  </defs>
  <path
     d="m 9.5928808,1.1146316 c 0.12,0 0.2346667,-0.016 0.344,-0.046667 1.4373332,-0.0946666 2.8746662,-0.0893333 4.3080002,0.010667 1.301333,0.104 2.561333,0.3853333 3.781333,0.848 2.025333,0.8333333 3.410667,2.2813333 4.161333,4.3386665 0.421334,1.24 0.676,2.516 0.754667,3.8226669 0.104,1.646666 0.068,3.286666 -0.114667,4.928 -0.14,1.150666 -0.437333,2.254666 -0.896,3.317333 -0.849333,1.844 -2.229333,3.114666 -4.134666,3.812 -1.542667,0.521333 -3.130667,0.797333 -4.766667,0.824 -1.833333,0.09867 -3.6506665,-0.04267 -5.4519998,-0.412 C 4.2702143,21.822631 2.2235477,19.802631 1.452881,16.499965 1.124881,15.015965 0.97288105,13.510631 1.0048811,11.989298 0.96888105,10.374631 1.1395477,8.7759647 1.520881,7.2026314 2.332881,4.1199649 4.2915476,2.2079649 7.3955476,1.4692983 8.1195475,1.2919649 8.8542142,1.1719649 9.5928808,1.1146316 Z"
     style="fill:url(#radialGradient868-3);fill-rule:evenodd;stroke:none;stroke-width:1.33333"
     id="path870" />
  <g
     id="g35"
     transform="matrix(0.34090909,0,0,0.34090909,21.545455,1.4318182)"
     style="stroke-width:2.93333">
    <path
       d="M -28,11 A 21,21 0 0 0 -49,32 21,21 0 0 0 -28,53 21,21 0 0 0 -7,32 H -9 A 19,19 0 0 1 -28,51 19,19 0 0 1 -47,32 19,19 0 0 1 -28,13 Z"
       fill="url(#d)"
       paint-order="stroke markers fill"
       id="path19"
       style="fill:url(#linearGradient35);stroke-width:2.93333" />
    <path
       d="m -29,16 h 2 v 16 h -2 z"
       fill="#333333"
       paint-order="stroke markers fill"
       id="path20"
       style="stroke-width:2.93333" />
    <path
       d="m -27.293,32 15.557,15.556 -0.708,0.708 L -28,32.707 Z"
       fill="#c08589"
       paint-order="stroke markers fill"
       id="path21"
       style="stroke-width:2.93333" />
    <circle
       cx="-28"
       cy="32"
       fill="#333333"
       paint-order="stroke markers fill"
       id="circle21"
       r="1"
       style="stroke-width:2.93333" />
    <path
       d="m -28,9 5,3 -5,3 z"
       fill="#d3d3d3"
       paint-order="markers stroke fill"
       id="path22"
       style="stroke-width:2.93333" />
    <path
       d="m -28,11 a 21,21 0 0 0 -21,21 21,21 0 0 0 21,21 V 51 A 19,19 0 0 1 -47,32 19,19 0 0 1 -28,13 Z"
       fill="url(#e)"
       paint-order="stroke markers fill"
       id="path23"
       style="fill:url(#linearGradient34);stroke-width:2.93333" />
    <path
       d="m -28,11 a 21,21 0 0 0 -21,21 h 2 a 19,19 0 0 1 19,-19 z"
       fill="url(#f)"
       paint-order="stroke markers fill"
       id="path24"
       style="fill:url(#linearGradient33);stroke-width:2.93333" />
    <path
       d="M -28,11 A 21,21 0 0 0 -49,32 21,21 0 0 0 -28,53 21,21 0 0 0 -7,32 H -9 A 19,19 0 0 1 -28,51 19,19 0 0 1 -47,32 19,19 0 0 1 -28,13 Z"
       fill="url(#d)"
       paint-order="stroke markers fill"
       id="path25"
       style="fill:url(#linearGradient32);stroke-width:2.93333" />
    <path
       d="m -29,16 h 2 v 16 h -2 z"
       fill="#333333"
       paint-order="stroke markers fill"
       id="path26"
       style="stroke-width:2.93333" />
    <path
       d="m -27.293,32 15.557,15.556 -0.708,0.708 L -28,32.707 Z"
       fill="#c08589"
       paint-order="stroke markers fill"
       id="path27"
       style="stroke-width:2.93333" />
    <circle
       cx="-28"
       cy="32"
       fill="#333333"
       paint-order="stroke markers fill"
       id="circle27"
       r="1"
       style="stroke-width:2.93333" />
    <path
       d="m -28,9 5,3 -5,3 z"
       fill="#d3d3d3"
       paint-order="markers stroke fill"
       id="path28"
       style="stroke-width:2.93333" />
    <path
       d="m -28,11 a 21,21 0 0 0 -21,21 21,21 0 0 0 21,21 V 51 A 19,19 0 0 1 -47,32 19,19 0 0 1 -28,13 Z"
       fill="url(#e)"
       paint-order="stroke markers fill"
       id="path29"
       style="fill:url(#linearGradient31);stroke-width:2.93333" />
    <path
       d="m -28,11 a 21,21 0 0 0 -21,21 h 2 a 19,19 0 0 1 19,-19 z"
       fill="url(#f)"
       paint-order="stroke markers fill"
       id="path30"
       style="fill:url(#linearGradient30);stroke-width:2.93333" />
  </g>
</svg>

<svg xmlns="http://www.w3.org/2000/svg" xmlns:xlink="http://www.w3.org/1999/xlink" width="24" height="24"><defs><linearGradient id="c" x1="32.707" x2="53" y1="32" y2="32" gradientTransform="translate(40)" gradientUnits="userSpaceOnUse"><stop offset="0" stop-color="#f3f3f3"/><stop offset="1" stop-color="#f9f9f9"/></linearGradient><linearGradient id="b" x1="11" x2="32" y1="32" y2="32" gradientTransform="translate(40)" gradientUnits="userSpaceOnUse"><stop offset="0" stop-color="#dbdbdb"/><stop offset="1" stop-color="#f3f3f3"/></linearGradient><linearGradient id="a" x1="11" x2="11" y1="32" y2="11" gradientTransform="translate(40)" gradientUnits="userSpaceOnUse"><stop offset="0" stop-color="#dcdcdc"/><stop offset="1" stop-color="#d3d3d3"/></linearGradient><linearGradient xlink:href="#a" id="j" x1="11" x2="11" y1="32" y2="11" gradientTransform="translate(-60)" gradientUnits="userSpaceOnUse"/><linearGradient xlink:href="#b" id="i" x1="11" x2="32" y1="32" y2="32" gradientTransform="translate(-60)" gradientUnits="userSpaceOnUse"/><linearGradient xlink:href="#c" id="h" x1="32.707" x2="53" y1="32" y2="32" gradientTransform="translate(-60)" gradientUnits="userSpaceOnUse"/><linearGradient xlink:href="#a" id="g" x1="11" x2="11" y1="32" y2="11" gradientTransform="translate(-60)" gradientUnits="userSpaceOnUse"/><linearGradient xlink:href="#b" id="f" x1="11" x2="32" y1="32" y2="32" gradientTransform="translate(-60)" gradientUnits="userSpaceOnUse"/><linearGradient xlink:href="#c" id="e" x1="32.707" x2="53" y1="32" y2="32" gradientTransform="translate(-60)" gradientUnits="userSpaceOnUse"/><radialGradient id="d" cx="0" cy="0" r="1" fx="0" fy="0" gradientTransform="matrix(0 22 -22 0 12 1)" gradientUnits="userSpaceOnUse" spreadMethod="pad"><stop offset="0" style="stop-color:#fff;stop-opacity:1"/><stop offset="1" style="stop-color:#f6f6f6;stop-opacity:1"/></radialGradient></defs><path d="M9.593 1.115c.12 0 .235-.016.344-.047a31.814 31.814 0 0 1 4.308.01 13.68 13.68 0 0 1 3.781.849c2.026.833 3.41 2.281 4.162 4.338.42 1.24.676 2.516.754 3.823a28.303 28.303 0 0 1-.114 4.928 11.968 11.968 0 0 1-.896 3.317c-.85 1.844-2.23 3.115-4.135 3.812-1.543.522-3.13.798-4.767.824a21.33 21.33 0 0 1-5.452-.412c-3.308-.734-5.354-2.754-6.125-6.057a18.991 18.991 0 0 1-.448-4.51 18.502 18.502 0 0 1 .516-4.787c.812-3.083 2.77-4.995 5.875-5.734a13.692 13.692 0 0 1 2.197-.354Z" style="fill:url(#d);fill-rule:evenodd;stroke:none;stroke-width:1.33333"/><g style="stroke-width:2.93333" transform="matrix(.3409 0 0 .3409 21.545 1.432)"><path fill="url(#c)" d="M-28 11a21 21 0 0 0-21 21 21 21 0 0 0 21 21A21 21 0 0 0-7 32h-2a19 19 0 0 1-19 19 19 19 0 0 1-19-19 19 19 0 0 1 19-19Z" paint-order="stroke markers fill" style="fill:url(#e);stroke-width:2.93333"/><path fill="#333" d="M-29 16h2v16h-2z" paint-order="stroke markers fill" style="stroke-width:2.93333"/><path fill="#c08589" d="m-27.293 32 15.557 15.556-.708.708L-28 32.707Z" paint-order="stroke markers fill" style="stroke-width:2.93333"/><circle cx="-28" cy="32" r="1" fill="#333" paint-order="stroke markers fill" style="stroke-width:2.93333"/><path fill="#d3d3d3" d="m-28 9 5 3-5 3z" paint-order="markers stroke fill" style="stroke-width:2.93333"/><path fill="url(#b)" d="M-28 11a21 21 0 0 0-21 21 21 21 0 0 0 21 21v-2a19 19 0 0 1-19-19 19 19 0 0 1 19-19Z" paint-order="stroke markers fill" style="fill:url(#f);stroke-width:2.93333"/><path fill="url(#a)" d="M-28 11a21 21 0 0 0-21 21h2a19 19 0 0 1 19-19z" paint-order="stroke markers fill" style="fill:url(#g);stroke-width:2.93333"/><path fill="url(#c)" d="M-28 11a21 21 0 0 0-21 21 21 21 0 0 0 21 21A21 21 0 0 0-7 32h-2a19 19 0 0 1-19 19 19 19 0 0 1-19-19 19 19 0 0 1 19-19Z" paint-order="stroke markers fill" style="fill:url(#h);stroke-width:2.93333"/><path fill="#333" d="M-29 16h2v16h-2z" paint-order="stroke markers fill" style="stroke-width:2.93333"/><path fill="#c08589" d="m-27.293 32 15.557 15.556-.708.708L-28 32.707Z" paint-order="stroke markers fill" style="stroke-width:2.93333"/><circle cx="-28" cy="32" r="1" fill="#333" paint-order="stroke markers fill" style="stroke-width:2.93333"/><path fill="#d3d3d3" d="m-28 9 5 3-5 3z" paint-order="markers stroke fill" style="stroke-width:2.93333"/><path fill="url(#b)" d="M-28 11a21 21 0 0 0-21 21 21 21 0 0 0 21 21v-2a19 19 0 0 1-19-19 19 19 0 0 1 19-19Z" paint-order="stroke markers fill" style="fill:url(#i);stroke-width:2.93333"/><path fill="url(#a)" d="M-28 11a21 21 0 0 0-21 21h2a19 19 0 0 1 19-19z" paint-order="stroke markers fill" style="fill:url(#j);stroke-width:2.93333"/></g></svg>
